X: 11647
T: Eileen O'Brien's
R: reel
M: 4/4
K: Dmajor
dA A2 BAFE|D2 FA defe|dA A2 BAFA|BFAF E2 FE|
D2 FD FA A2|BAFB ABde|d2 fd Adfg|afeg fd d2:|
d2 fd Adfg|afge dcAB|=c2 Gc EcGc|d=cAB cAGc|
Addc defg|afge defg|afge dfed|=cAGE ED D2:|

